src/assets/images/wechat.svg

<svg fill="none" height="54" viewBox="0 0 54 54" width="54" xmlns="http://www.w3.org/2000/svg"><path d="m34.7856 20.4802c.5063 0 1.0055.0362 1.5.0887-1.3471-6.0631-8.0555-10.5689-15.7121-10.5689-8.5607 0-15.5735 5.6396-15.5735 12.8002 0 4.1326 2.33363 7.5268 6.2318 10.1594l-1.55735 4.5287 5.44355-2.6391c1.9491.3721 3.5112.7558 5.4555.7558.4885 0 .9721-.0232 1.4535-.0605-.3046-1.0055-.4814-2.0599-.4814-3.1529.0001-6.575 5.8425-11.9114 13.24-11.9114zm-8.372-4.0813c1.1728 0 1.949.7465 1.949 1.8791 0 1.1279-.7762 1.8838-1.949 1.8838-1.1681 0-2.3384-.7559-2.3384-1.8838 0-1.1326 1.1704-1.8791 2.3384-1.8791zm-10.8991 3.7628c-1.168 0-2.3456-.7558-2.3456-1.8837 0-1.1326 1.1776-1.8791 2.3456-1.8791 1.1668 0 1.9443.7465 1.9443 1.8791 0 1.1279-.7775 1.8837-1.9443 1.8837zm33.4855 12.0491c0-6.0175-6.2306-10.9223-13.2279-10.9223-7.4095 0-13.2447 4.9048-13.2447 10.9223 0 6.0263 5.8352 10.9205 13.2447 10.9205 1.5501 0 3.1147-.3756 4.6719-.7535l4.2721 2.2605-1.1716-3.7605c3.1267-2.2675 5.4555-5.2728 5.4555-8.667zm-17.5227-1.8838c-.775 0-1.5573-.7453-1.5573-1.5058 0-.75.7823-1.5047 1.5573-1.5047 1.1776 0 1.9491.7547 1.9491 1.5047 0 .7605-.7715 1.5058-1.9491 1.5058zm8.5655 0c-.7691 0-1.5466-.7453-1.5466-1.5058 0-.75.7775-1.5047 1.5466-1.5047 1.168 0 1.9491.7547 1.9491 1.5047 0 .7605-.7811 1.5058-1.9491 1.5058z" fill="#000"/></svg>

<svg width="54" height="54" viewBox="0 0 54 54" fill="none" xmlns="http://www.w3.org/2000/svg">
<path d="M34.7856 20.4802C35.2919 20.4802 35.7911 20.5164 36.2856 20.5689C34.9385 14.5058 28.2301 10 20.5735 10C12.0128 10 5 15.6396 5 22.8002C5 26.9328 7.33363 30.327 11.2318 32.9596L9.67445 37.4883L15.118 34.8492C17.0671 35.2213 18.6292 35.605 20.5735 35.605C21.062 35.605 21.5456 35.5818 22.027 35.5445C21.7224 34.539 21.5456 33.4846 21.5456 32.3916C21.5457 25.8166 27.3881 20.4802 34.7856 20.4802ZM26.4136 16.3989C27.5864 16.3989 28.3626 17.1454 28.3626 18.278C28.3626 19.4059 27.5864 20.1618 26.4136 20.1618C25.2455 20.1618 24.0752 19.4059 24.0752 18.278C24.0752 17.1454 25.2456 16.3989 26.4136 16.3989ZM15.5145 20.1617C14.3465 20.1617 13.1689 19.4059 13.1689 18.278C13.1689 17.1454 14.3465 16.3989 15.5145 16.3989C16.6813 16.3989 17.4588 17.1454 17.4588 18.278C17.4588 19.4059 16.6813 20.1617 15.5145 20.1617ZM49 32.2108C49 26.1933 42.7694 21.2885 35.7721 21.2885C28.3626 21.2885 22.5274 26.1933 22.5274 32.2108C22.5274 38.2371 28.3626 43.1313 35.7721 43.1313C37.3222 43.1313 38.8868 42.7557 40.444 42.3778L44.7161 44.6383L43.5445 40.8778C46.6712 38.6103 49 35.605 49 32.2108ZM31.4773 30.327C30.7023 30.327 29.92 29.5817 29.92 28.8212C29.92 28.0712 30.7023 27.3165 31.4773 27.3165C32.6549 27.3165 33.4264 28.0712 33.4264 28.8212C33.4264 29.5817 32.6549 30.327 31.4773 30.327ZM40.0428 30.327C39.2737 30.327 38.4962 29.5817 38.4962 28.8212C38.4962 28.0712 39.2737 27.3165 40.0428 27.3165C41.2108 27.3165 41.9919 28.0712 41.9919 28.8212C41.9919 29.5817 41.2108 30.327 40.0428 30.327Z" fill="black"/>
</svg>
